X:1
T: Hamish's Reel
C:
R:Reel
Q: 232
K:G
M:4/4
L:1/8
D2 G2 G2 B2|B2 d2 d4|d4 e3d|d2 c2 c2 D2|D2 F2 F2 A2|A2 c2 c4|f3e f3e|e2 d2 e2 d2|
D2 GG G2 B2|B2 d2 d4|d4 g3f|f2 e2 e4|f2 e2 f2 e2|e2 d2 e2 d2|d3c B2 A2|G4-G2 DD|
D2 G2 B2 G2|D2 G2 B2 G2|B4 c3B|B2 A2 A2 D2|-D2 F2 A2 F2|D2 F2 A2 F2|f3e f3e|e2 d2 e2 d2|
D2 G2 B2 G2|D2 G2 B2 G2|d4 g3f|f2 e2 e4|f2 e2 f2 e2|e2 d2 e2 d2|d3c B2 A2|G4-G4||
